svgs/velobank.svg

<svg width="192" height="192" viewBox="0 0 192 192" fill="none" xmlns="http://www.w3.org/2000/svg"><path d="m22 96 148 .013M96 170V22" stroke="#000" stroke-width="12" stroke-linecap="round"/><path d="M48.5 118.5v31h16" stroke="#000" stroke-width="8" stroke-linecap="round" stroke-linejoin="round"/><path d="M154 135c0 9.575-7.345 17-16 17-8.655 0-16-7.425-16-17s7.345-17 16-17c8.655 0 16 7.425 16 17Z" stroke="#000" stroke-width="8"/><path d="M147 43h-15.5v31H147m0-15h-15.5M41 42.5 55 77l14-34.5" stroke="#000" stroke-width="8" stroke-linecap="round" stroke-linejoin="round"/></svg>

<svg width="192" height="192" viewBox="0 0 192 192" fill="none" xmlns="http://www.w3.org/2000/svg">
<path d="M22 96L170 96.0135" stroke="black" stroke-width="12" stroke-linecap="round"/>
<path d="M96 170L95.9999 22" stroke="black" stroke-width="12" stroke-linecap="round"/>
<path d="M48.5 118.5V149.5H64.5" stroke="black" stroke-width="8" stroke-linecap="round" stroke-linejoin="round"/>
<path d="M154 135C154 144.575 146.655 152 138 152C129.345 152 122 144.575 122 135C122 125.425 129.345 118 138 118C146.655 118 154 125.425 154 135Z" stroke="black" stroke-width="8"/>
<path d="M147 43H131.5V74H147" stroke="black" stroke-width="8" stroke-linecap="round" stroke-linejoin="round"/>
<path d="M145.5 62C147.709 62 149.5 60.2091 149.5 58C149.5 55.7909 147.709 54 145.5 54V62ZM131 62H145.5V54H131V62Z" fill="black"/>
<path d="M41 42.5L55 77L69 42.5" stroke="black" stroke-width="8" stroke-linecap="round" stroke-linejoin="round"/>
</svg>
